SVG_Azure_All/Azure Firewall.svg

<?xml version="1.0" encoding="UTF-8" standalone="no"?>
<!-- Generated by Microsoft Visio, SVG Export Azure Firewall.svg Page-1 -->

<svg
   xmlns:dc="http://purl.org/dc/elements/1.1/"
   xmlns:cc="http://creativecommons.org/ns#"
   xmlns:rdf="http://www.w3.org/1999/02/22-rdf-syntax-ns#"
   xmlns:svg="http://www.w3.org/2000/svg"
   xmlns="http://www.w3.org/2000/svg"
   xmlns:sodipodi="http://sodipodi.sourceforge.net/DTD/sodipodi-0.dtd"
   xmlns:inkscape="http://www.inkscape.org/namespaces/inkscape"
   width="0.78740501in"
   height="0.66928828in"
   viewBox="0 0 56.693346 48.188688"
   xml:space="preserve"
   class="st7"
   version="1.1"
   id="svg76"
   sodipodi:docname="Azure Firewall.svg"
   style="font-size:12px;overflow:visible;color-interpolation-filters:sRGB;fill:none;fill-rule:evenodd;stroke-linecap:square;stroke-miterlimit:3"
   inkscape:version="0.92.5 (2060ec1f9f, 2020-04-08)"><metadata
   id="metadata80"><rdf:RDF><cc:Work
       rdf:about=""><dc:format>image/svg+xml</dc:format><dc:type
         rdf:resource="http://purl.org/dc/dcmitype/StillImage" /></cc:Work></rdf:RDF></metadata><sodipodi:namedview
   pagecolor="#ffffff"
   bordercolor="#666666"
   borderopacity="1"
   objecttolerance="10"
   gridtolerance="10"
   guidetolerance="10"
   inkscape:pageopacity="0"
   inkscape:pageshadow="2"
   inkscape:window-width="640"
   inkscape:window-height="480"
   id="namedview78"
   showgrid="false"
   inkscape:zoom="1.7820854"
   inkscape:cx="37.795337"
   inkscape:cy="20.855691"
   inkscape:window-x="0"
   inkscape:window-y="0"
   inkscape:window-maximized="0"
   inkscape:current-layer="svg76" />
	<style
   type="text/css"
   id="style2">
	<![CDATA[
		.st1 {fill:#821010;stroke:none;stroke-linecap:butt;stroke-width:17.1162}
		.st2 {fill:#e62323;stroke:none;stroke-linecap:butt;stroke-width:17.1162}
		.st3 {fill:#ff7381;stroke:none;stroke-linecap:butt;stroke-width:17.1162}
		.st4 {fill:#dfa500;stroke:none;stroke-linecap:butt;stroke-width:17.1162}
		.st5 {fill:url(#grad0-22);stroke:none;stroke-linecap:butt;stroke-width:17.1162}
		.st6 {fill:#ffd400;stroke:none;stroke-linecap:butt;stroke-width:17.1162}
		.st7 {fill:none;fill-rule:evenodd;font-size:12px;overflow:visible;stroke-linecap:square;stroke-miterlimit:3}
	]]>
	</style>

	<defs
   id="Patterns_And_Gradients">
		<linearGradient
   id="grad0-22"
   x1="0"
   y1="61.667692"
   x2="28.722437"
   y2="61.667692"
   gradientTransform="scale(0.9100899,1.0987925)"
   gradientUnits="userSpaceOnUse">
			<stop
   offset="0"
   stop-color="#ffd70f"
   stop-opacity="1"
   id="stop4" />
			<stop
   offset="0.12"
   stop-color="#ffcc11"
   stop-opacity="1"
   id="stop6" />
			<stop
   offset="0.44"
   stop-color="#feb517"
   stop-opacity="1"
   id="stop8" />
			<stop
   offset="0.75"
   stop-color="#fea61a"
   stop-opacity="1"
   id="stop10" />
			<stop
   offset="1"
   stop-color="#fea11b"
   stop-opacity="1"
   id="stop12" />
		</linearGradient>
	</defs>
	<g
   id="g74"
   transform="translate(-17.116155,-17.113987)">
		<title
   id="title16">Page-1</title>
		<g
   id="group8129-1"
   transform="translate(17.1165,-34.0157)">
			<title
   id="title18">Azure Firewall</title>
			<g
   id="group8130-2">
				<title
   id="title20">layer1</title>
				<g
   id="shape8131-3"
   transform="translate(0,-22.2582)">
					<title
   id="title22">path4</title>
					<path
   d="M 45.48,73.39 H 1.92 A 1.82751,1.81704 -180 0 0 0,75.24 v 22.27 a 1.82751,1.81704 -180 0 0 1.86,1.81 h 24.12 v -8.77 a 1.54238,1.53354 0 0 1 1.08,-1.47 h 0.4 a 15.4005,15.3122 -180 0 0 10.05,-3.63 7.30838,7.26649 0 0 1 2.18,-0.79 12.5975,12.5253 0 0 1 2.64,-0.37 12.3474,12.2766 0 0 1 2.65,0.25 c 0.81,0.15 1.6,0.44 2.33,0.84 V 75.24 A 1.82418,1.81372 -180 0 0 45.48,73.39 Z M 32.19,91.06 v 5.76 h 12.79 v -5.76 z"
   class="st1"
   id="path24"
   inkscape:connector-curvature="0"
   style="fill:#821010;stroke:none;stroke-width:17.11619949;stroke-linecap:butt" />
				</g>
				<g
   id="shape8132-5"
   transform="translate(2.67791,-39.9826)">
					<title
   id="title27">path6</title>
					<rect
   x="0"
   y="93.684898"
   width="12.8176"
   height="5.6367798"
   class="st2"
   id="rect29"
   style="fill:#e62323;stroke:none;stroke-width:17.11619949;stroke-linecap:butt" />
				</g>
				<g
   id="shape8133-7"
   transform="translate(17.4181,-39.9826)">
					<title
   id="title32">path8</title>
					<rect
   x="0"
   y="93.684898"
   width="12.8176"
   height="5.6367798"
   class="st3"
   id="rect34"
   style="fill:#ff7381;stroke:none;stroke-width:17.11619949;stroke-linecap:butt" />
				</g>
				<g
   id="shape8134-9"
   transform="translate(2.67791,-32.4342)">
					<title
   id="title37">path10</title>
					<path
   d="M 42.33,86.14 H 29.51 v 5.63 H 42.33 Z M 5.32,93.68 H 0 v 5.64 h 5.32 z"
   class="st2"
   id="path39"
   inkscape:connector-curvature="0"
   style="fill:#e62323;stroke:none;stroke-width:17.11619949;stroke-linecap:butt" />
				</g>
				<g
   id="shape8135-11"
   transform="translate(9.95294,-32.4342)">
					<title
   id="title42">path12</title>
					<path
   d="m 35.02,93.68 v 1.13 a 12.3474,12.2766 -180 0 0 -2.64,-0.34 12.5992,12.527 -180 0 0 -2.65,0.25 v -1.03 z m -22.2,0 H 0 v 5.64 h 12.82 z"
   class="st3"
   id="path44"
   inkscape:connector-curvature="0"
   style="fill:#ff7381;stroke:none;stroke-width:17.11619949;stroke-linecap:butt" />
				</g>
				<g
   id="shape8136-13"
   transform="translate(2.67791,-24.856)">
					<title
   id="title47">path14</title>
					<path
   d="m 34.83,86.11 v 1.91 A 15.4005,15.3122 0 0 1 24.79,91.65 H 22.02 V 86.11 H 34.84 Z M 12.82,93.68 H 0 v 5.64 h 12.82 z"
   class="st2"
   id="path49"
   inkscape:connector-curvature="0"
   style="fill:#e62323;stroke:none;stroke-width:17.11619949;stroke-linecap:butt" />
				</g>
				<g
   id="shape8137-15"
   transform="translate(17.4181,-24.8875)">
					<title
   id="title52">path16</title>
					<path
   d="M 8.57,93.68 H 0 v 5.64 h 8.57 z"
   class="st3"
   id="path54"
   inkscape:connector-curvature="0"
   style="fill:#ff7381;stroke:none;stroke-width:17.11619949;stroke-linecap:butt" />
				</g>
				<g
   id="shape8138-17"
   transform="translate(28.063)">
					<title
   id="title57">path18</title>
					<path
   d="m 28.63,80.82 c 0,9.4 -11.34,16.85 -13.79,18.38 a 1.00713,1.00136 0 0 1 -0.95,0 C 11.34,97.7 0,90.22 0,80.82 V 69.64 A 0.913756,0.908519 0 0 1 0.882077,68.731489 C 9.7,68.52 7.65,64.66 14.27,64.66 c 6.61,0 4.57,3.86 13.38,4.07 a 0.913756,0.908519 0 0 1 0.883745,0.908511 z"
   class="st4"
   id="path59"
   inkscape:connector-curvature="0"
   style="fill:#dfa500;stroke:none;stroke-width:17.11619949;stroke-linecap:butt" />
				</g>
				<g
   id="shape8139-19"
   transform="translate(29.2919,-1.65233)">
					<title
   id="title62">path20</title>
					<path
   d="m 13.04,83.66 v -15.9 c 6.08,0 4.19,3.54 12.28,3.75 a 0.818712,0.81402 0 0 1 0.818715,0.814014 L 26.14,83.54 Z m 0,0 H 0 c 0.79,8.05 10.45,14.44 12.6,15.66 h 0.38 z"
   class="st5"
   id="path64"
   inkscape:connector-curvature="0"
   style="fill:url(#grad0-22);stroke:none;stroke-width:17.11619949;stroke-linecap:butt" />
				</g>
				<g
   id="shape8140-23"
   transform="translate(29.2919,-1.402)">
					<title
   id="title67">path22</title>
					<path
   d="m 0.76,71.26 c 8.09,-0.21 6.29,-3.75 12.28,-3.75 v 15.9 H 0 V 72.08 A 0.817045,0.812362 0 0 1 0.755358,71.265986 Z M 26.08,83.41 H 13.04 v 15.91 h 0.35 c 2.26,-1.44 11.9,-7.7 12.69,-15.91 z"
   class="st6"
   id="path69"
   inkscape:connector-curvature="0"
   style="fill:#ffd400;stroke:none;stroke-width:17.11619949;stroke-linecap:butt" />
				</g>
			</g>
		</g>
	</g>
</svg>

<?xml version="1.0" encoding="UTF-8" standalone="no"?>
<!DOCTYPE svg PUBLIC "-//W3C//DTD SVG 1.1//EN" "http://www.w3.org/Graphics/SVG/1.1/DTD/svg11.dtd">
<!-- Generated by Microsoft Visio, SVG Export Azure Firewall.svg Page-1 -->
<svg xmlns="http://www.w3.org/2000/svg" xmlns:xlink="http://www.w3.org/1999/xlink" xmlns:ev="http://www.w3.org/2001/xml-events"
		width="1.26285in" height="1.37947in" viewBox="0 0 90.9255 99.3217" xml:space="preserve" color-interpolation-filters="sRGB"
		class="st7">
	<style type="text/css">
	<![CDATA[
		.st1 {fill:#821010;stroke:none;stroke-linecap:butt;stroke-width:17.1162}
		.st2 {fill:#e62323;stroke:none;stroke-linecap:butt;stroke-width:17.1162}
		.st3 {fill:#ff7381;stroke:none;stroke-linecap:butt;stroke-width:17.1162}
		.st4 {fill:#dfa500;stroke:none;stroke-linecap:butt;stroke-width:17.1162}
		.st5 {fill:url(#grad0-22);stroke:none;stroke-linecap:butt;stroke-width:17.1162}
		.st6 {fill:#ffd400;stroke:none;stroke-linecap:butt;stroke-width:17.1162}
		.st7 {fill:none;fill-rule:evenodd;font-size:12px;overflow:visible;stroke-linecap:square;stroke-miterlimit:3}
	]]>
	</style>

	<defs id="Patterns_And_Gradients">
		<linearGradient id="grad0-22" x1="0" y1="0" x2="1" y2="0" gradientTransform="rotate(90 0.5 0.5)">
			<stop offset="0" stop-color="#ffd70f" stop-opacity="1"/>
			<stop offset="0.12" stop-color="#ffcc11" stop-opacity="1"/>
			<stop offset="0.44" stop-color="#feb517" stop-opacity="1"/>
			<stop offset="0.75" stop-color="#fea61a" stop-opacity="1"/>
			<stop offset="1" stop-color="#fea11b" stop-opacity="1"/>
		</linearGradient>
	</defs>
	<g>
		<title>Page-1</title>
		<g id="group7934-1" transform="translate(17.1165,-34.0157)">
			<title>Azure Firewall</title>
			<g id="group7935-2">
				<title>layer1</title>
				<g id="shape7936-3" transform="translate(0,-22.2582)">
					<title>path4</title>
					<path d="M45.48 73.39 L1.92 73.39 A1.82751 1.81704 -180 0 0 -0 75.24 L0 97.51 A1.82751 1.81704 -180 0 0 1.86
								 99.32 L25.98 99.32 L25.98 90.55 A1.54238 1.53354 0 0 1 27.06 89.08 L27.46 89.08 A15.4005 15.3122
								 -180 0 0 37.51 85.45 A7.30838 7.26649 0 0 1 39.69 84.66 A12.5975 12.5253 0 0 1 42.33 84.29 A12.3474
								 12.2766 0 0 1 44.98 84.54 C45.79 84.69 46.58 84.98 47.31 85.38 L47.31 75.24 A1.82418 1.81372 -180
								 0 0 45.48 73.39 L45.48 73.39 ZM32.19 91.06 L32.19 96.82 L44.98 96.82 L44.98 91.06 L32.19 91.06 Z"
							class="st1"/>
				</g>
				<g id="shape7937-5" transform="translate(2.67791,-39.9826)">
					<title>path6</title>
					<rect x="0" y="93.6849" width="12.8176" height="5.63678" class="st2"/>
				</g>
				<g id="shape7938-7" transform="translate(17.4181,-39.9826)">
					<title>path8</title>
					<rect x="0" y="93.6849" width="12.8176" height="5.63678" class="st3"/>
				</g>
				<g id="shape7939-9" transform="translate(2.67791,-32.4342)">
					<title>path10</title>
					<path d="M42.33 86.14 L29.51 86.14 L29.51 91.77 L42.33 91.77 L42.33 86.14 ZM5.32 93.68 L0 93.68 L0 99.32 L5.32
								 99.32 L5.32 93.68 Z" class="st2"/>
				</g>
				<g id="shape7940-11" transform="translate(9.95294,-32.4342)">
					<title>path12</title>
					<path d="M35.02 93.68 L35.02 94.81 A12.3474 12.2766 -180 0 0 32.38 94.47 A12.5992 12.527 -180 0 0 29.73 94.72
								 L29.73 93.69 L35.02 93.68 ZM12.82 93.68 L0 93.68 L0 99.32 L12.82 99.32 L12.82 93.68 Z" class="st3"/>
				</g>
				<g id="shape7941-13" transform="translate(2.67791,-24.856)">
					<title>path14</title>
					<path d="M34.83 86.11 L34.83 88.02 A15.4005 15.3122 0 0 1 24.79 91.65 L22.02 91.65 L22.02 86.11 L34.84 86.11
								 L34.83 86.11 ZM12.82 93.68 L0 93.68 L0 99.32 L12.82 99.32 L12.82 93.68 Z" class="st2"/>
				</g>
				<g id="shape7942-15" transform="translate(17.4181,-24.8875)">
					<title>path16</title>
					<path d="M8.57 93.68 L0 93.68 L0 99.32 L8.57 99.32 L8.57 93.68 Z" class="st3"/>
				</g>
				<g id="shape7943-17" transform="translate(28.063,-2.41585E-13)">
					<title>path18</title>
					<path d="M28.63 80.82 C28.63 90.22 17.29 97.67 14.84 99.2 A1.00713 1.00136 0 0 1 13.89 99.2 C11.34 97.7 0 90.22
								 0 80.82 L0 69.64 a0.913756 0.908519 0 0 1 0.882077 -0.908511 C9.7 68.52 7.65 64.66 14.27 64.66 C20.88
								 64.66 18.84 68.52 27.65 68.73 a0.913756 0.908519 0 0 1 0.883745 0.908511 L28.63 80.82 Z"
							class="st4"/>
				</g>
				<g id="shape7944-19" transform="translate(29.2919,-1.65233)">
					<title>path20</title>
					<path d="M13.04 83.66 L13.04 67.76 C19.12 67.76 17.23 71.3 25.32 71.51 a0.818712 0.81402 0 0 1 0.818715 0.814014
								 L26.14 83.54 L13.04 83.66 ZM13.04 83.66 L0 83.66 C0.79 91.71 10.45 98.1 12.6 99.32 L12.98 99.32
								 L13.04 83.66 Z" class="st5"/>
				</g>
				<g id="shape7945-23" transform="translate(29.2919,-1.402)">
					<title>path22</title>
					<path d="M0.76 71.26 C8.85 71.05 7.05 67.51 13.04 67.51 L13.04 83.41 L0 83.41 L0 72.08 a0.817045 0.812362 0 0
								 1 0.755358 -0.814014 ZM26.08 83.41 L13.04 83.41 L13.04 99.32 L13.39 99.32 C15.65 97.88 25.29 91.62
								 26.08 83.41 L26.08 83.41 Z" class="st6"/>
				</g>
			</g>
		</g>
	</g>
</svg>
